X:1
T:Sonatine Op. 20 Nr. 1
T:Sonatina Op. 20, Nr. 1
T:Friedrich Kuhlau (1786–1832) 
C:Friedrich Kuhlau
C:(1786–1832)
%%score { 1 | 2 }
L:1/8
Q:1/4=144
M:4/4
K:C
V:1 treble nm="P1"
V:2 treble 
V:1
!p!"^Allegro" (!tenuto!c4 e4 | !>!g4- .g)(.g.g.g) |!<(! (g2 c'2!<)!!>(! !>!e'3 .c')!>)! | %3
 (!tenuto!c'4 b2) z (b | !>!d'4 f3) (f | !>!e4 g3) (e |!<(! ^cdfe!<)!!>(! dafd!>)! | %7
 =cBdB .G2) z2 |!p! z (G [ce]G [ce]G[ce]G) | z (G [ce]G [ce]G[ce]G) | z (G [df]G [df]G[df]G) | %11
 z (G [df]G [df]G[df]G) |!mf! (3z (Gc (3_ecG (3ecG (3ecG) | (3z (Gc (3_ecG (3ecG (3ecG) | %14
 (3z (Ac (3dcA (3dcA (3dcA) | (3z (Ac (3dcA (3dcA (3dcA |!p! .B2)"_dolce" (!>!b4 ag | %17
 ^fe^de) (!tenuto!e2 =dc | BA^G.A)!<(! (Aced)!<)! | (d4 B2) z2 | z (b d'c' bag^f | %21
 !tenuto!^deag ^fe=dc | !tenuto!^ABed ^cd=c=A | %23
!f!!<(! (!>!G)A/B/ c/d/e/^f/ g/a/b/a/!<)!!>(! g/f/e/d/!>)! | ^c/d/e/d/ =c/B/A/G/ .^F).F.F.F | %25
 (!>!GA/B/!<(! c/d/e/^f/ g/a/b/a/!<)!!>(! g/f/e/!>)!d/ | ^c/d/e/d/ =c/B/A/G/ .^F).F.F.F | %27
 (!>!GA/B/ c/d/e/^f/"_cresc." !>!g/B/c/d/ e/f/g/a/ | %28
 !>!b/d/e/^f/ g/a/b/c'/ !>!d'/g/a/b/ c'/d'/e'/^f'/ | (g')^f'=f'e'"_dim." d'c'ba | %30
!>(! g^gba =g=fed!>)! :|"_dolce" c2 B2) z2 (B2 |!>(! !tenuto!d2!>)! c2) z2 (c2 | %33
!>(! !tenuto!e2!>)! d2) z2 (g2 |!>(! !tenuto!f2!>)! e2) z .G .G(G | !tenuto!c2 B2) z .B .B(B | %36
!>(! !tenuto!d2!>)! c2) z .c .c(c |!<(! ed^cd!<)!!>(! !tenuto!g3 f!>)! | %38
 ._e)"_cresc.".[=ce].[ce].[ce] .[ce].[ce].[ce].[ce] | %39
!<(! .[c_e].[ce].[ce].[ce] .[ce].[ce].[ce]!<)!.[ce] | [Bd]4- .[Bd].[Bd].[Bd].[Bd] | %41
 [c_e]4- .[ce].[ce].[ce].[ce] | [Bd]4- .[Bd].[Bd].[Bd].[Bd] | [c_e]4- .[ce].[ce].[ce].[ce] | %44
 .[Bd]2 ([c_e]2 .[Bd]2) ([ce]2 | .[Bd]2)!p! (G/A/B/c/ .d2)"_cresc." (B/c/d/=e/ | %46
 .f2) (g/a/b/c'/ .d'2) (b/c'/d'/e'/ |!f! !>!f'/e'/d'/c'/ b/c'/d'/e'/ !>!f'/e'/d'/c'/ b/c'/d'/e'/ | %48
 !>!f'/e'/"_dim."d'/c'/ b/c'/d'/c'/ b/a/g/f/ e/d/c/B/ |!p! !tenuto!c4 e4 | !>!g4- .g).g.g.g | %51
!<(! (g2 c'2!<)!!>(! !>!e'3 .c')!>)! | (!tenuto!c'4 .b2) z (b | !>!d'4 .f2) z (f | %54
 !>!e4 .g2) z (e |!<(! ^cdfe!<)!!>(! daf!>)!d | =cBdB G2) z2 | z!p! (G [ce]G [ce]G[ce]G) | %58
 z (G [ce]G [ce]G[ce]G) | z (G [df]G [df]G[df]G) | z (G [df]G [df]G[df]G)!mf! | %61
 (3z!p! (Gc (3_ecG (3ecG (3ecG) | (3z (Gc (3_ecG (3ecG (3ecG) | (3z (Gd (3fdG (3fdG (3fdG) | %64
 (3z (Gd (3fdG (3fdG (3fdG |!p! .e2)"_dolce" (!>!e'4 d'c' | ba^g.a) (!tenuto!a2 =gf | %67
 ed^c.d)!<(! (dfa!<)!.g) | (!tenuto!g4 .e2) z2 | z!mf! (e'!>(! g'f' e'd'c'!>)!b | %70
 !tenuto!^gad'c' ba=gf | !tenuto!^deag ^fg=f=d | %72
!f! (!>!c)d/e/!<(! f/g/a/b/ c'/=d'/e'/d'/!<)!!>(! c'/b/a/!>)!g/ | ^f/g/a/g/ =f/e/d/c/ .B).B.B.B | %74
!f! (!>!cd/e/!<(! f/g/a/b/ c'/d'/e'/d'/!<)!!>(! c'/b/a/!>)!g/ | ^f/g/a/g/ =f/e/d/c/ .B).B.B.B | %76
 (!>!cd/e/ f/g/a/b/ !>!c'/"_cresc."e/f/g/ a/b/c'/d'/ | %77
!8va(! !>!e'/g/a/b/ c'/d'/e'/f'/ !>!g'/c'/d'/e'/ f'/g'/a'/b'/ | .c''2)!8va)! z2!ff! .[EGc]2 z2 | %79
 .[E,G,C]2 z2 z4 |] %80
V:2
!pp! (CGEG CGE(G) |"_legato" C)GEG CGE(G | C)GEG CGE(G | D)GFG DGF(G | B,)GDG B,GD(G | %5
 C)GEG CGE(G | (([FA]8) | G2)) z2 z[K:bass]!mf! (G,, A,,B,, | !tenuto!C,4 E,4 | !>!G,8 | %10
 !tenuto!B,,4 D,4 | !>!G,8) |!f! !>![C,,C,]4 [_E,,_E,]4 | [G,,G,]8 | !>![^F,,^F,]4 [A,,A,]4 | %15
 ([D,D]8 |!pp! (G,)DB,D G,DB,(D) | G,)"_legato"ECE G,EC(E | ^F,)DCD F,DC(D | G,)DB,D G,DB,(D | %20
!p! (G,8) | C8 | D4 D,4 | .G,2) z2 z4 | z4 z .[D,A,C] .[D,A,C].[D,A,C] | [G,B,]2 z2 z4 | %26
 z4 z .[D,A,C] .[D,A,C].[D,A,C] | [G,B,]2 z2 z4 | .[G,B,D]2 z2 .[G,B,D]2 z2 | .[G,B,D]2 z2 z4 | %30
 z8 :|!pp! (G,FDF G,FD(F) | G,)"_legato"ECE G,EC(E | G,)DB,D G,DB,(D | G,)EC(E G,)EC(E | %35
 G,)FDF G,FD(F | G,)EC(E G,)EC(E | G,)DB,D G,DB,(D | [_A,C]4) !>![_A,,A,]4 | %39
 !>![G,,G,]4 !>![^F,,^F,]4 |!f!!<(! (G,,A,,/B,,/ C,/D,/E,/^F,/!<)! .G,2) z2 | %41
 (C,!<(!D,/_E,/ =F,/G,/A,/B,/!<)! .C2) z2 | (G,!<(!A,/B,/ C/D/=E/^F/!<)! .G2) z2 | %43
 (C,D,/_E,/ =F,/G,/A,/B,/ .C2) z2 | .G,2 (C,/D,/_E,/F,/ .G,2) (C,/D,/E,/F,/ | %45
 .G,2) z2 .[G,B,D]2 z2 | .[G,B,D]2 z2 .[G,B,D]2 z2 | [G,B,D]8- | [G,B,D]2 z2 z4 | %49
!pp! (CGEG CGE(G) | C)"_legato"GEG CGE(G | C)GEG CGE(G | D)GFG DGF(G | B,)GDG B,GD(G | %54
 C)GEG CGE(G | (([FA]8) | G2)) z2 z[K:bass]!mf! (G,, A,,B,, | !tenuto!C,4 E,4 | !>!G,8 | %59
 !tenuto!B,,4 D,4 | !>!G,8) | !>![C,,C,]4 [_E,,_E,]4 | [G,,G,]8 | !>![B,,,B,,]4 [D,,D,]4 | %64
 [G,,G,]8 |!pp! (CGEG CGE(G) | C)"_legato"AFA CAF(A | B,)GFG B,GF(G | C)GEG CGE(G |!p! (C8) | F8 | %71
 G4[K:bass] G,4 | .C2) z2 z4 | z4 z .[G,DF] .[G,DF].[G,DF] | .[CE]2 z2 z4 | %75
 z4 z .[G,DF] .[G,DF].[G,DF] | .[CE]2 z2 z4 | .[CEG]2 z2 .[CEG]2 z2 | %78
 .[CEG]2 z2[K:bass] .[C,C]2 z2 | .[C,,C,]2 z2 z4 |] %80

